flaticon/emoticons/smug-3.svg

<svg xmlns="http://www.w3.org/2000/svg" width="32" height="32" viewBox="0 0 24 24">
    <path d="M 17.191406 15.003906 C 16.9375 14.898438 16.644531 15.019531 16.539062 15.273438 C 15.910156 16.78125 14.675781 17.949219 13.070312 18.5625 C 11.496094 19.160156 9.71875 19.140625 8.191406 18.503906 C 7.9375 18.398438 7.644531 18.519531 7.539062 18.773438 C 7.433594 19.027344 7.550781 19.320312 7.808594 19.429688 C 8.742188 19.816406 9.71875 20 10.6875 20 C 13.570312 20 16.335938 18.355469 17.460938 15.660156 C 17.566406 15.402344 17.449219 15.109375 17.191406 15.003906 Z M 17.191406 15.003906"/>
    <path d="M 24 7.234375 L 23.738281 7.09375 C 22.953125 6.664062 22.121094 6.335938 21.269531 6.105469 C 19.234375 2.90625 15.785156 1 12 1 C 8.214844 1 4.765625 2.90625 2.730469 6.105469 C 1.878906 6.335938 1.046875 6.664062 0.261719 7.09375 L 0 7.234375 L 0 7.53125 C 0 10.121094 0.429688 11.773438 1.046875 12.824219 C 1.476562 18.539062 6.261719 23 12 23 C 17.738281 23 22.523438 18.539062 22.953125 12.824219 C 23.570312 11.773438 24 10.121094 24 7.53125 Z M 12 2 C 15.09375 2 17.941406 3.398438 19.832031 5.796875 C 18.117188 5.546875 16.386719 5.691406 14.75 6.195312 C 14.679688 6.21875 14.609375 6.238281 14.542969 6.261719 C 14.386719 6.3125 14.234375 6.363281 14.082031 6.421875 C 13.949219 6.472656 13.8125 6.527344 13.679688 6.582031 C 13.570312 6.628906 13.457031 6.671875 13.347656 6.722656 C 13.160156 6.808594 12.972656 6.902344 12.785156 7 L 11.214844 7 C 11.027344 6.902344 10.84375 6.808594 10.652344 6.722656 C 10.542969 6.671875 10.429688 6.628906 10.316406 6.582031 C 10.183594 6.527344 10.054688 6.472656 9.921875 6.425781 C 9.765625 6.367188 9.609375 6.308594 9.453125 6.257812 C 9.390625 6.238281 9.324219 6.21875 9.261719 6.199219 C 7.621094 5.691406 5.886719 5.546875 4.167969 5.796875 C 6.058594 3.398438 8.90625 2 12 2 Z M 3.277344 6.992188 C 3.519531 6.933594 3.761719 6.882812 4.003906 6.839844 C 4.136719 6.816406 4.273438 6.800781 4.40625 6.78125 C 4.523438 6.765625 4.636719 6.753906 4.753906 6.742188 C 5.304688 6.683594 5.863281 6.671875 6.421875 6.699219 C 6.445312 6.703125 6.46875 6.703125 6.492188 6.703125 C 7.074219 6.742188 7.65625 6.824219 8.226562 6.953125 C 8.3125 6.976562 8.398438 6.996094 8.488281 7.019531 C 8.699219 7.074219 8.910156 7.136719 9.117188 7.203125 C 9.289062 7.257812 9.460938 7.316406 9.625 7.378906 C 9.71875 7.414062 9.8125 7.453125 9.90625 7.492188 C 10.15625 7.597656 10.40625 7.707031 10.652344 7.828125 C 10.613281 8.71875 10.371094 10.609375 9.097656 11.960938 C 9.011719 12.050781 8.921875 12.140625 8.828125 12.222656 C 7.628906 13.308594 5.867188 13.738281 3.597656 13.503906 C 3.476562 13.492188 3.367188 13.46875 3.257812 13.4375 C 3.238281 13.433594 3.21875 13.425781 3.199219 13.421875 C 2.984375 13.355469 2.785156 13.257812 2.609375 13.128906 C 2.597656 13.117188 2.585938 13.109375 2.570312 13.097656 C 2.496094 13.042969 2.425781 12.980469 2.355469 12.910156 C 2.339844 12.894531 2.324219 12.882812 2.3125 12.867188 C 2.242188 12.796875 2.175781 12.71875 2.113281 12.636719 C 2.074219 12.582031 2.035156 12.523438 1.996094 12.46875 C 1.253906 11.347656 1.023438 9.507812 1 7.832031 C 1.730469 7.460938 2.492188 7.183594 3.277344 6.992188 Z M 12 22 C 7.238281 22 3.191406 18.621094 2.230469 14.082031 C 2.242188 14.085938 2.25 14.09375 2.261719 14.097656 C 2.289062 14.113281 2.320312 14.128906 2.347656 14.144531 C 2.417969 14.183594 2.488281 14.21875 2.558594 14.25 C 2.601562 14.269531 2.640625 14.28125 2.683594 14.300781 C 2.742188 14.324219 2.800781 14.347656 2.863281 14.367188 C 2.921875 14.382812 2.976562 14.398438 3.035156 14.414062 C 3.082031 14.425781 3.125 14.4375 3.171875 14.449219 C 3.28125 14.46875 3.386719 14.488281 3.492188 14.496094 C 3.78125 14.527344 4.0625 14.542969 4.339844 14.554688 C 4.402344 14.554688 4.460938 14.558594 4.523438 14.558594 C 4.601562 14.558594 4.679688 14.566406 4.757812 14.566406 C 4.890625 14.566406 5.019531 14.554688 5.152344 14.550781 C 5.226562 14.546875 5.300781 14.546875 5.375 14.542969 C 5.90625 14.511719 6.410156 14.4375 6.882812 14.320312 C 6.945312 14.304688 7.003906 14.285156 7.0625 14.269531 C 7.230469 14.222656 7.398438 14.171875 7.558594 14.113281 C 7.632812 14.085938 7.707031 14.054688 7.78125 14.027344 C 7.921875 13.96875 8.0625 13.90625 8.199219 13.839844 C 8.269531 13.804688 8.339844 13.769531 8.410156 13.730469 C 8.546875 13.65625 8.679688 13.574219 8.808594 13.488281 C 8.867188 13.453125 8.925781 13.417969 8.980469 13.378906 C 9.160156 13.25 9.335938 13.117188 9.5 12.96875 C 11.203125 11.429688 11.578125 9.230469 11.644531 8 L 12.355469 8 C 12.421875 9.230469 12.796875 11.429688 14.5 12.96875 C 14.664062 13.113281 14.839844 13.25 15.019531 13.378906 C 15.074219 13.417969 15.136719 13.453125 15.195312 13.492188 C 15.324219 13.574219 15.453125 13.65625 15.589844 13.730469 C 15.660156 13.769531 15.734375 13.804688 15.804688 13.839844 C 15.9375 13.90625 16.078125 13.96875 16.21875 14.023438 C 16.292969 14.054688 16.367188 14.085938 16.445312 14.113281 C 16.601562 14.171875 16.761719 14.21875 16.925781 14.265625 C 16.992188 14.28125 17.054688 14.304688 17.121094 14.320312 C 17.355469 14.378906 17.597656 14.429688 17.847656 14.464844 C 17.867188 14.46875 17.890625 14.46875 17.910156 14.472656 C 18.140625 14.503906 18.375 14.527344 18.613281 14.542969 C 18.703125 14.546875 18.792969 14.546875 18.882812 14.550781 C 19.003906 14.554688 19.121094 14.566406 19.242188 14.566406 C 19.316406 14.566406 19.386719 14.558594 19.460938 14.558594 C 19.53125 14.558594 19.605469 14.554688 19.675781 14.550781 C 19.949219 14.542969 20.222656 14.527344 20.507812 14.496094 C 20.613281 14.484375 20.71875 14.46875 20.828125 14.445312 C 20.871094 14.4375 20.917969 14.425781 20.964844 14.414062 C 21.023438 14.398438 21.078125 14.382812 21.136719 14.367188 C 21.199219 14.347656 21.257812 14.320312 21.316406 14.300781 C 21.359375 14.28125 21.398438 14.269531 21.441406 14.25 C 21.511719 14.21875 21.582031 14.179688 21.652344 14.144531 C 21.679688 14.128906 21.707031 14.113281 21.738281 14.097656 C 21.746094 14.089844 21.757812 14.085938 21.769531 14.078125 C 20.808594 18.621094 16.761719 22 12 22 Z M 22 12.46875 C 21.964844 12.527344 21.925781 12.582031 21.886719 12.636719 C 21.824219 12.71875 21.757812 12.796875 21.6875 12.867188 C 21.671875 12.882812 21.65625 12.898438 21.644531 12.910156 C 21.574219 12.980469 21.503906 13.042969 21.425781 13.101562 C 21.414062 13.109375 21.402344 13.117188 21.390625 13.128906 C 21.214844 13.257812 21.015625 13.355469 20.800781 13.421875 C 20.78125 13.425781 20.761719 13.433594 20.738281 13.4375 C 20.632812 13.46875 20.519531 13.492188 20.402344 13.503906 C 18.128906 13.738281 16.371094 13.308594 15.167969 12.226562 C 15.074219 12.140625 14.984375 12.050781 14.902344 11.960938 C 13.628906 10.609375 13.386719 8.71875 13.347656 7.832031 C 13.59375 7.707031 13.84375 7.597656 14.09375 7.492188 C 14.183594 7.453125 14.277344 7.417969 14.367188 7.382812 C 14.542969 7.316406 14.714844 7.257812 14.890625 7.199219 C 15.09375 7.136719 15.296875 7.078125 15.5 7.023438 C 15.59375 7 15.683594 6.976562 15.777344 6.953125 C 15.953125 6.914062 16.132812 6.878906 16.308594 6.847656 C 16.3125 6.84375 16.316406 6.84375 16.320312 6.84375 C 16.710938 6.777344 17.105469 6.730469 17.5 6.707031 C 17.527344 6.703125 17.554688 6.703125 17.582031 6.699219 C 18.136719 6.671875 18.691406 6.6875 19.246094 6.742188 C 19.363281 6.753906 19.476562 6.765625 19.59375 6.78125 C 19.730469 6.800781 19.863281 6.816406 19.996094 6.839844 C 20.238281 6.882812 20.480469 6.933594 20.722656 6.992188 C 21.507812 7.183594 22.269531 7.460938 22.996094 7.832031 C 22.976562 9.507812 22.746094 11.347656 22 12.46875 Z M 22 12.46875"/>
    <path d="M2.382812 9.664062C2.480469 9.765625 2.613281 9.816406 2.746094 9.816406 2.867188 9.816406 2.992188 9.769531 3.089844 9.679688L4.773438 8.070312C4.972656 7.878906 4.980469 7.5625 4.789062 7.363281 4.597656 7.164062 4.28125 7.15625 4.082031 7.347656L2.398438 8.957031C2.199219 9.148438 2.191406 9.464844 2.382812 9.664062zM4.625 10.734375C4.722656 10.839844 4.855469 10.890625 4.988281 10.890625 5.113281 10.890625 5.238281 10.84375 5.332031 10.753906L8.136719 8.070312C8.335938 7.878906 8.34375 7.5625 8.152344 7.363281 7.964844 7.164062 7.648438 7.15625 7.445312 7.347656L4.640625 10.03125C4.441406 10.21875 4.433594 10.535156 4.625 10.734375zM17.128906 7.363281C16.9375 7.164062 16.621094 7.15625 16.421875 7.347656L14.738281 8.957031C14.539062 9.148438 14.535156 9.464844 14.722656 9.664062 14.824219 9.765625 14.953125 9.816406 15.085938 9.816406 15.210938 9.816406 15.335938 9.773438 15.429688 9.679688L17.113281 8.070312C17.3125 7.878906 17.320312 7.5625 17.128906 7.363281zM20.496094 7.363281C20.304688 7.164062 19.988281 7.15625 19.789062 7.347656L16.984375 10.027344C16.785156 10.21875 16.777344 10.535156 16.96875 10.734375 17.066406 10.839844 17.199219 10.890625 17.328125 10.890625 17.453125 10.890625 17.578125 10.84375 17.675781 10.753906L20.480469 8.070312C20.679688 7.878906 20.6875 7.5625 20.496094 7.363281zM20.496094 7.363281"/>
</svg>

<svg xmlns="http://www.w3.org/2000/svg" width="32" height="32" viewBox="0 0 24 24">
    <path d="M17.191 15.004a.5.5 0 0 0-.652.27c-.629 1.507-1.863 2.675-3.469 3.289-1.574.597-3.351.578-4.879-.06a.5.5 0 0 0-.382.927c.933.386 1.91.57 2.878.57 2.883 0 5.649-1.645 6.774-4.34a.5.5 0 0 0-.27-.656zm0 0"/>
    <path d="M24 7.234l-.262-.14a11.283 11.283 0 0 0-2.468-.989C19.234 2.906 15.785 1 12 1 8.215 1 4.766 2.906 2.73 6.105c-.851.23-1.683.56-2.468.989L0 7.234v.297c0 2.59.43 4.242 1.047 5.293C1.477 18.54 6.262 23 12 23c5.738 0 10.523-4.46 10.953-10.176C23.57 11.774 24 10.121 24 7.531zM12 2a9.915 9.915 0 0 1 7.832 3.797 11.574 11.574 0 0 0-5.082.398c-.07.024-.14.043-.207.067-.156.05-.309.101-.461.16-.133.05-.27.105-.402.16-.11.047-.223.09-.332.14-.188.087-.375.18-.563.278h-1.57a10.716 10.716 0 0 0-.563-.277c-.109-.051-.222-.094-.336-.141-.132-.055-.261-.11-.394-.156-.156-.059-.313-.117-.469-.168l-.191-.059a11.57 11.57 0 0 0-5.094-.402A9.915 9.915 0 0 1 12 2zM3.277 6.992c.243-.058.485-.11.727-.152.133-.024.27-.04.402-.059.117-.015.23-.027.348-.039.55-.058 1.11-.07 1.668-.043.023.004.047.004.07.004.582.04 1.164.121 1.735.25.085.024.171.043.261.067a11.594 11.594 0 0 1 1.418.472c.25.106.5.215.746.336-.039.89-.28 2.781-1.554 4.133a4.26 4.26 0 0 1-.27.262c-1.2 1.086-2.96 1.515-5.23 1.28a1.87 1.87 0 0 1-.34-.066c-.02-.003-.04-.011-.059-.015a1.985 1.985 0 0 1-.59-.293c-.011-.012-.023-.02-.039-.031a1.892 1.892 0 0 1-.215-.188c-.015-.015-.03-.027-.042-.043a2.281 2.281 0 0 1-.2-.23c-.039-.055-.078-.114-.117-.168-.742-1.121-.973-2.961-.996-4.637.73-.371 1.492-.648 2.277-.84zM12 22c-4.762 0-8.809-3.379-9.77-7.918.012.004.02.012.032.016.027.015.058.03.086.047.07.039.14.074.21.105.044.02.083.031.126.05.058.024.117.048.18.067l.171.047.137.035c.11.02.215.04.32.047.29.031.57.047.848.059.062 0 .12.004.183.004.079 0 .157.007.235.007.133 0 .262-.011.394-.015.075-.004.149-.004.223-.008a8.289 8.289 0 0 0 1.508-.223c.062-.015.12-.035.18-.05a6.67 6.67 0 0 0 .496-.157c.074-.027.148-.058.222-.086.14-.058.282-.12.418-.187a5.428 5.428 0 0 0 .61-.352c.058-.035.117-.07.171-.11.18-.128.356-.26.52-.41C11.203 11.43 11.578 9.23 11.645 8h.71c.067 1.23.442 3.43 2.145 4.969.164.144.34.281.52.41.054.039.117.074.175.113.13.082.258.164.395.238.07.04.144.075.215.11.133.066.273.129.414.183.074.032.148.063.226.09.157.059.317.106.48.153.067.015.13.039.196.054.234.059.477.11.727.145.02.004.043.004.062.008.23.03.465.054.703.07.09.004.18.004.27.008.12.004.238.015.36.015.073 0 .144-.007.218-.007.07 0 .144-.004.215-.008.273-.008.547-.024.832-.055a3.2 3.2 0 0 0 .457-.082l.172-.047c.062-.02.12-.047.18-.066.042-.02.081-.031.124-.051.07-.031.141-.07.211-.105.028-.016.055-.032.086-.047.008-.008.02-.012.032-.02C20.809 18.621 16.762 22 12 22zm10-9.531c-.035.058-.074.113-.113.168-.063.082-.13.16-.2.23l-.042.043a2.02 2.02 0 0 1-.844.512c-.02.004-.04.012-.063.015a1.827 1.827 0 0 1-.336.067c-2.273.234-4.03-.195-5.234-1.277a4.259 4.259 0 0 1-.266-.266c-1.273-1.352-1.515-3.242-1.554-4.129.246-.125.496-.234.746-.34.09-.039.183-.074.273-.11.176-.066.348-.124.524-.183.203-.062.406-.12.609-.176l.277-.07c.176-.039.356-.074.532-.105.003-.004.007-.004.011-.004.39-.067.785-.114 1.18-.137.027-.004.055-.004.082-.008a11.279 11.279 0 0 1 2.012.082c.136.02.27.035.402.059.242.043.484.094.727.152.785.192 1.547.469 2.273.84-.02 1.676-.25 3.516-.996 4.637zm0 0"/>
    <path d="M2.383 9.664a.502.502 0 0 0 .707.016l1.683-1.61a.5.5 0 1 0-.691-.722L2.398 8.957a.5.5 0 0 0-.015.707zm0 0M4.625 10.734a.498.498 0 0 0 .707.02L8.137 8.07a.5.5 0 1 0-.692-.722L4.641 10.03a.495.495 0 0 0-.016.703zm0 0M17.129 7.363a.5.5 0 0 0-.707-.015l-1.684 1.609a.504.504 0 0 0-.015.707.509.509 0 0 0 .707.016l1.683-1.61a.5.5 0 0 0 .016-.707zm0 0M20.496 7.363a.5.5 0 0 0-.707-.015l-2.805 2.68a.5.5 0 0 0 .344.863c.125 0 .25-.047.348-.137L20.48 8.07a.5.5 0 0 0 .016-.707zm0 0"/>
</svg>
